svg/azure-devops-pipeline.svg

<?xml version="1.0" encoding="UTF-8"?>
<svg xmlns="http://www.w3.org/2000/svg" xmlns:xlink="http://www.w3.org/1999/xlink" width="32" height="32" viewBox="0 0 32 32">
<rect x="-3.2" y="-3.2" width="38.4" height="38.4" fill="rgb(100%, 100%, 100%)" fill-opacity="1"/>
<path fill-rule="nonzero" fill="rgb(16.470588%, 39.215686%, 88.235294%)" fill-opacity="1" d="M 18.296875 0.238281 C 18.59375 0.1875 18.882812 0.199219 19.183594 0.199219 L 30.519531 0.199219 C 31.011719 0.191406 31.476562 0.554688 31.6875 0.980469 C 31.839844 1.289062 31.796875 1.59375 31.800781 1.925781 L 31.800781 13.261719 C 31.796875 13.992188 31.5 14.691406 30.976562 15.199219 C 30.71875 15.453125 30.375 15.644531 30.074219 15.851562 C 28.019531 17.214844 25.960938 18.578125 23.902344 19.9375 L 14.609375 26.089844 C 14.273438 26.328125 13.96875 26.539062 13.535156 26.472656 C 12.992188 26.398438 12.6875 25.933594 12.316406 25.589844 C 11.648438 24.929688 10.992188 24.265625 10.328125 23.605469 C 10.515625 23.34375 10.757812 23.136719 10.980469 22.910156 C 13.5625 20.328125 16.152344 17.746094 18.730469 15.164062 C 18.203125 14.59375 17.628906 14.0625 17.089844 13.503906 C 16.992188 13.417969 16.867188 13.246094 16.722656 13.277344 C 16.546875 13.4375 16.386719 13.605469 16.21875 13.773438 C 13.597656 16.390625 10.984375 19.019531 8.355469 21.628906 C 7.710938 20.988281 7.066406 20.347656 6.429688 19.695312 C 6.070312 19.308594 5.597656 19.015625 5.527344 18.449219 C 5.460938 18.019531 5.679688 17.722656 5.910156 17.386719 C 7.964844 14.292969 10.007812 11.191406 12.0625 8.097656 L 16.472656 1.4375 C 16.890625 0.804688 17.550781 0.371094 18.296875 0.238281 M 18.296875 0.238281 "/>
<path fill-rule="nonzero" fill="rgb(58.039216%, 69.803922%, 94.901961%)" fill-opacity="1" d="M 22.554688 4.789062 C 24.101562 4.507812 25.667969 5.15625 26.5625 6.449219 C 27.457031 7.738281 27.511719 9.433594 26.707031 10.78125 C 26.183594 11.65625 25.347656 12.300781 24.367188 12.582031 C 23.546875 12.8125 22.679688 12.78125 21.878906 12.488281 C 20.6875 12.046875 19.777344 11.066406 19.425781 9.847656 C 19.105469 8.757812 19.265625 7.585938 19.863281 6.621094 C 20.460938 5.65625 21.4375 4.992188 22.554688 4.789062 M 22.554688 4.789062 "/>
<path fill-rule="nonzero" fill="rgb(8.235294%, 29.019608%, 74.901961%)" fill-opacity="1" d="M 1.628906 8.097656 L 12.0625 8.097656 C 10.007812 11.191406 7.964844 14.292969 5.90625 17.386719 C 5.679688 17.722656 5.460938 18.019531 5.527344 18.449219 C 5.597656 19.015625 6.070312 19.308594 6.429688 19.695312 C 5.890625 20.253906 5.363281 20.820312 4.828125 21.375 C 3.320312 19.8125 1.789062 18.269531 0.277344 16.707031 C 0.308594 16.25 0.292969 15.792969 0.296875 15.332031 C 0.296875 13.40625 0.289062 11.480469 0.292969 9.554688 C 0.289062 9.414062 0.253906 9.28125 0.226562 9.144531 C 0.359375 8.523438 1.003906 8.070312 1.628906 8.097656 M 1.628906 8.097656 "/>
<path fill-rule="nonzero" fill="rgb(0.392157%, 23.137255%, 72.54902%)" fill-opacity="1" d="M 0.226562 9.144531 C 0.253906 9.28125 0.289062 9.414062 0.292969 9.554688 C 0.289062 11.480469 0.296875 13.40625 0.296875 15.332031 C 0.292969 15.792969 0.308594 16.25 0.277344 16.707031 L 0.199219 16.613281 C 0.203125 14.386719 0.199219 12.152344 0.199219 9.925781 C 0.203125 9.660156 0.183594 9.40625 0.226562 9.144531 M 0.226562 9.144531 "/>
<path fill-rule="nonzero" fill="rgb(30.980392%, 50.980392%, 94.117647%)" fill-opacity="1" d="M 16.722656 13.277344 C 16.867188 13.246094 16.992188 13.417969 17.089844 13.503906 C 17.628906 14.0625 18.199219 14.59375 18.730469 15.164062 C 16.152344 17.746094 13.5625 20.328125 10.980469 22.910156 C 10.757812 23.136719 10.515625 23.34375 10.328125 23.605469 L 10.253906 23.535156 L 8.421875 21.699219 C 11.144531 18.964844 13.886719 16.230469 16.617188 13.503906 C 16.6875 13.4375 16.699219 13.367188 16.722656 13.277344 M 16.722656 13.277344 "/>
<path fill-rule="nonzero" fill="rgb(45.490196%, 60.784314%, 94.901961%)" fill-opacity="1" d="M 16.722656 13.277344 C 16.699219 13.367188 16.6875 13.4375 16.617188 13.503906 C 13.886719 16.230469 11.144531 18.964844 8.421875 21.699219 L 10.253906 23.535156 C 9.707031 24.074219 9.167969 24.628906 8.617188 25.164062 C 7.988281 24.53125 7.355469 23.898438 6.722656 23.269531 C 7.269531 22.722656 7.820312 22.183594 8.355469 21.628906 C 10.984375 19.019531 13.597656 16.390625 16.21875 13.773438 C 16.386719 13.605469 16.546875 13.4375 16.722656 13.277344 M 16.722656 13.277344 "/>
<path fill-rule="nonzero" fill="rgb(6.27451%, 27.843137%, 74.117647%)" fill-opacity="1" d="M 23.902344 19.9375 L 23.902344 30.449219 C 23.898438 30.957031 23.632812 31.457031 23.164062 31.683594 C 22.863281 31.835938 22.546875 31.796875 22.222656 31.800781 C 19.976562 31.800781 17.71875 31.800781 15.472656 31.804688 C 15.339844 31.824219 15.242188 31.667969 15.152344 31.589844 C 13.679688 30.113281 12.207031 28.640625 10.730469 27.167969 C 11.261719 26.644531 11.785156 26.113281 12.316406 25.589844 C 12.6875 25.933594 12.992188 26.398438 13.535156 26.472656 C 13.96875 26.539062 14.273438 26.328125 14.609375 26.089844 Z M 23.902344 19.9375 "/>
<path fill-rule="nonzero" fill="rgb(56.862745%, 69.019608%, 94.901961%)" fill-opacity="1" d="M 0.199219 23.902344 L 2.828125 23.902344 C 2.832031 25.660156 2.828125 27.414062 2.832031 29.171875 C 4.585938 29.171875 6.339844 29.167969 8.09375 29.171875 C 8.097656 30.046875 8.097656 30.925781 8.097656 31.800781 C 5.464844 31.800781 2.832031 31.804688 0.199219 31.800781 C 0.195312 29.167969 0.199219 26.535156 0.199219 23.902344 M 0.199219 23.902344 "/>
</svg>

<svg role="img" viewBox="0 0 32 32" height="32" width="32" xmlns="http://www.w3.org/2000/svg"><path d="M-3.2-3.2h38.4v38.4H-3.2z" fill="rgb(100%, 100%, 100%)"/><path d="M18.297.238c.297-.05.586-.039.887-.039H30.52c.492-.008.957.356 1.168.781.152.31.109.614.113.946v11.336a2.72 2.72 0 0 1-.824 1.937c-.258.254-.602.446-.903.653a3373.187 3373.187 0 0 1-6.172 4.085L14.61 26.09c-.336.238-.64.45-1.074.383-.543-.075-.848-.54-1.219-.883-.668-.66-1.324-1.324-1.988-1.985.188-.261.43-.468.652-.695 2.582-2.582 5.172-5.164 7.75-7.746-.527-.57-1.101-1.101-1.64-1.66-.098-.086-.223-.258-.367-.227-.176.16-.336.328-.504.496-2.621 2.618-5.235 5.247-7.864 7.856-.644-.64-1.289-1.281-1.925-1.934-.36-.386-.832-.68-.903-1.246-.066-.43.153-.726.383-1.062 2.055-3.094 4.098-6.196 6.153-9.29l4.41-6.66A2.768 2.768 0 0 1 18.297.238m0 0" fill="rgb(16.470588%, 39.215686%, 88.235294%)"/><path d="M22.555 4.79a4.002 4.002 0 0 1 4.152 5.992 4.019 4.019 0 0 1-2.34 1.8c-.82.23-1.687.2-2.488-.094a3.999 3.999 0 0 1-2.453-2.64 3.988 3.988 0 0 1 .437-3.227 4.005 4.005 0 0 1 2.692-1.832m0 0" fill="rgb(58.039216%, 69.803922%, 94.901961%)"/><path d="M1.629 8.098h10.433c-2.054 3.093-4.097 6.195-6.156 9.289-.226.336-.445.633-.379 1.062.07.567.543.86.903 1.246-.54.559-1.067 1.125-1.602 1.68C3.32 19.813 1.79 18.27.278 16.707c.03-.457.015-.914.019-1.375 0-1.926-.008-3.852-.004-5.777-.004-.14-.04-.274-.066-.41.132-.622.777-1.075 1.402-1.047m0 0" fill="rgb(8.235294%, 29.019608%, 74.901961%)"/><path d="M.227 9.145c.027.136.062.27.066.41-.004 1.925.004 3.851.004 5.777-.004.461.012.918-.02 1.375L.2 16.613c.004-2.226 0-4.46 0-6.687.004-.266-.015-.52.028-.781m0 0" fill="rgb(0.392157%, 23.137255%, 72.54902%)"/><path d="M16.723 13.277c.144-.03.27.141.367.227.539.559 1.11 1.09 1.64 1.66-2.578 2.582-5.167 5.164-7.75 7.746-.222.227-.464.434-.652.695l-.074-.07L8.422 21.7c2.723-2.734 5.465-5.469 8.195-8.195.07-.066.082-.137.106-.227m0 0" fill="rgb(30.980392%, 50.980392%, 94.117647%)"/><path d="M16.723 13.277c-.024.09-.035.16-.106.227-2.73 2.726-5.472 5.46-8.195 8.195l1.832 1.836c-.547.54-1.086 1.094-1.637 1.63a433.233 433.233 0 0 0-1.894-1.895c.547-.547 1.097-1.086 1.632-1.641 2.63-2.61 5.243-5.238 7.864-7.856.168-.168.328-.335.504-.496m0 0" fill="rgb(45.490196%, 60.784314%, 94.901961%)"/><path d="M23.902 19.938v10.511c-.004.508-.27 1.008-.738 1.235-.3.152-.617.113-.941.117-2.246 0-4.504 0-6.75.004-.133.02-.23-.137-.32-.215-1.473-1.477-2.946-2.95-4.423-4.422.532-.523 1.055-1.055 1.586-1.578.371.344.676.808 1.22.883.433.066.737-.145 1.073-.383Zm0 0" fill="rgb(6.27451%, 27.843137%, 74.117647%)"/><path d="M.2 23.902h2.628c.004 1.758 0 3.512.004 5.27 1.754 0 3.508-.004 5.262 0 .004.875.004 1.754.004 2.629-2.633 0-5.266.004-7.899 0-.004-2.633 0-5.266 0-7.899m0 0" fill="rgb(56.862745%, 69.019608%, 94.901961%)"/></svg>
